brandFactory_export/2.Regular/Consultar documento_2Regular.svg

<?xml version="1.0" encoding="UTF-8"?>
<svg width="24px" height="24px" viewBox="0 0 24 24" version="1.1" xmlns="http://www.w3.org/2000/svg" xmlns:xlink="http://www.w3.org/1999/xlink">
    <title>2.Regular/Consultar documento_2Regular</title>
    <g id="Symbols" stroke="none" stroke-width="1" fill="none" fill-rule="evenodd">
        <g id="2.Regular/Consultar-documento_2Regular" fill="#5CB615" fill-rule="nonzero">
            <path d="M16.3495798,0.0100840336 C16.5277311,0.0100840336 16.6991597,0.0806722689 16.8235294,0.208403361 L23.3781513,6.76302521 C23.5058824,6.88739496 23.5764706,7.05882353 23.5764706,7.23697479 L23.5764706,22.2319328 C23.5764706,23.0554622 23.0420168,23.5865546 22.2218487,23.589916 C21.8588235,23.5932773 21.4957983,23.5932773 21.1294118,23.5932773 L8.54117647,23.5932773 C7.68739496,23.5932773 7.15630252,23.0588235 7.15630252,22.2016807 L7.15537276,17.2624732 C6.38494355,16.99074 5.67672583,16.5872893 5.05774832,16.0791501 L1.15966387,20.1277311 C1.03193277,20.2588235 0.857142857,20.3327731 0.675630252,20.3327731 C0.305882353,20.3327731 0.00336134436,20.0336134 0.00336134436,19.6605042 C0.00336134436,19.4857143 0.0705882351,19.3176471 0.191596638,19.1932773 L4.10451928,15.1292529 C3.10902151,13.9252391 2.51092437,12.3805214 2.51092437,10.6957983 C2.51092437,7.66277128 4.44943069,5.08352619 7.15537276,4.12913361 L7.15630252,1.38823529 C7.15630252,0.541176471 7.68739496,0.0134453782 8.53781513,0.0100840336 L16.3495798,0.0100840336 Z M15.6763613,1.35708403 L8.50084034,1.35798319 L8.50043602,3.80171322 C8.81801077,3.75737551 9.14245698,3.73445378 9.47226891,3.73445378 C13.3176471,3.73445378 16.4336134,6.85042017 16.4336134,10.6957983 C16.4336134,12.5411765 15.7008403,14.312605 14.3932773,15.6168067 C13.092437,16.9277311 11.3210084,17.6605042 9.47226891,17.6571544 C9.14245698,17.6571544 8.81801077,17.6342326 8.50043602,17.5898947 L8.50084034,22.2487395 L22.2285714,22.2487395 L22.2283613,7.91208403 L19.6268908,7.91260504 C18.4806723,7.91260504 17.492437,7.53277311 16.7764706,6.81344538 C16.0605042,6.09411765 15.6773109,5.1092437 15.6773109,3.96302521 L15.6763613,1.35708403 Z M9.47226891,5.07893524 C6.3697479,5.07893524 3.85546218,7.59663866 3.85882016,10.6991597 C3.85882016,13.8016807 6.37647059,16.3159664 9.4789916,16.3126084 C12.5815126,16.3092437 15.092437,13.794958 15.092437,10.692437 C15.092437,9.20336134 14.5008403,7.77478992 13.4453782,6.72268908 C12.3932773,5.66722689 10.9647059,5.07226891 9.47226891,5.07893524 Z M17.0218487,2.3092437 L17.0218487,3.96302521 C17.0218487,4.74621849 17.2638655,5.40168067 17.7243697,5.86554622 C18.1848739,6.32941176 18.8436975,6.57142857 19.6235294,6.57142857 L21.2773109,6.57142857 L17.0218487,2.3092437 Z" id="Consultar-documento_2Regular"></path>
        </g>
    </g>
</svg>

<svg width="24" height="24" viewBox="0 0 24 24" xmlns="http://www.w3.org/2000/svg"><path d="M16.35.01c.178 0 .35.07.474.198l6.554 6.555a.66.66 0 01.198.474v14.995c0 .823-.534 1.355-1.354 1.358-.363.003-.726.003-1.093.003H8.541c-.854 0-1.385-.534-1.385-1.391v-4.94a6.95 6.95 0 01-2.098-1.183L1.16 20.128a.672.672 0 11-.968-.934l3.913-4.065a6.963 6.963 0 013.05-11l.001-2.74C7.156.54 7.687.012 8.538.01h7.812zm-.674 1.347l-7.175.001v2.444a6.96 6.96 0 015.893 11.815 6.91 6.91 0 01-4.922 2.04c-.33 0-.654-.023-.972-.067v4.659H22.23V7.912h-2.602c-1.146 0-2.135-.38-2.85-1.099-.716-.719-1.1-1.704-1.1-2.85V1.357zM9.472 5.08a5.614 5.614 0 00-5.613 5.62 5.614 5.614 0 005.62 5.614 5.618 5.618 0 003.966-9.59 5.575 5.575 0 00-3.973-1.644zm7.55-2.77v1.654c0 .783.242 1.439.702 1.903.46.463 1.12.705 1.9.705h1.653L17.022 2.31z" fill="#5CB615" fill-rule="nonzero"/></svg>
